icons/cursor/hand-drag-cursor.svg

<svg width="20" height="20" viewBox="0 0 20 20" fill="none" xmlns="http://www.w3.org/2000/svg">
<g clip-path="url(#clip0_689_17)">
<path d="M6.91351 6.21153C7.41958 6.1396 7.77485 6.25874 8.06586 6.40587C8.38211 6.56576 8.44771 6.62463 8.58344 6.63243C8.59295 6.63045 8.60397 6.62804 8.61566 6.62559C8.67338 6.61352 8.75299 6.59637 8.83539 6.5797C8.91738 6.5631 9.00674 6.54625 9.08441 6.53282C9.14474 6.52239 9.24667 6.50454 9.3266 6.5045H9.33832L9.35004 6.50548L9.49457 6.5172C9.82957 6.55562 10.1515 6.67248 10.434 6.85899C10.679 7.02075 10.8874 7.23033 11.0473 7.47423C11.2132 7.49328 11.3802 7.5012 11.5473 7.49473H11.5668C12.39 7.49473 12.8828 7.93158 13.1567 8.35313C13.2682 8.52492 13.3418 8.69516 13.394 8.82774C14.1501 8.8477 14.6189 9.29608 14.9047 9.68419C15.047 9.87743 15.1607 10.0788 15.2368 10.2066C15.2786 10.2769 15.3062 10.3206 15.3266 10.3483C15.7375 10.6206 16.053 11.0148 16.228 11.4762C16.4032 11.9385 16.4271 12.4434 16.2993 12.9205L16.3002 12.9215C16.1644 13.5325 15.8051 14.8979 15.3745 16.1461L15.3686 16.1627L15.3618 16.1783C14.6254 17.9099 12.6198 18.8561 10.1547 18.8561C7.91179 18.856 6.44743 17.776 5.49457 16.5406C4.79312 15.6312 4.35872 14.6221 4.08051 13.9088L3.85004 13.3092C3.65368 12.8121 3.58041 12.2742 3.63715 11.7428L3.66449 11.5445C3.74194 11.0851 3.91558 10.6462 4.17523 10.2574L4.19769 10.2252L4.22406 10.1969V10.1959C4.22444 10.1955 4.22525 10.1948 4.22601 10.194L4.26508 10.15C4.2927 10.1194 4.33341 10.0756 4.38129 10.0211C4.4774 9.91168 4.60383 9.76295 4.72992 9.60606C4.85753 9.44726 4.97698 9.28856 5.06195 9.15587C5.1046 9.08926 5.13253 9.03916 5.14789 9.00548V9.00255C5.1489 8.64434 5.16463 8.08815 5.33344 7.57286C5.51622 7.01509 5.9054 6.43859 6.68695 6.2545L6.91351 6.21153ZM8.54242 6.64024C8.53959 6.64068 8.5375 6.64106 8.53656 6.64122C8.5355 6.6414 8.53462 6.64219 8.53461 6.6422H8.53558C8.53621 6.64208 8.53739 6.64144 8.53851 6.64122C8.53989 6.64095 8.54151 6.64062 8.5434 6.64024H8.54242Z" fill="black" stroke="white"/>
</g>
<defs>
<clipPath id="clip0_689_17">
<rect width="20" height="20" fill="white"/>
</clipPath>
</defs>
</svg>

<?xml version="1.0" encoding="UTF-8"?>
<svg id="Layer_1" xmlns="http://www.w3.org/2000/svg" xmlns:xlink="http://www.w3.org/1999/xlink" version="1.1" viewBox="0 0 20 20">
  <!-- Generator: Adobe Illustrator 29.6.1, SVG Export Plug-In . SVG Version: 2.1.1 Build 9)  -->
  <defs>
    <style>
      .st0 {
        fill: none;
      }

      .st1 {
        fill: #fff;
      }

      .st2 {
        clip-path: url(#clippath);
      }
    </style>
    <clipPath id="clippath">
      <rect class="st0" width="20" height="20"/>
    </clipPath>
  </defs>
  <g class="st2">
    <g>
      <path d="M6.91,6.21c.51-.07.86.05,1.15.19.32.16.38.22.52.23,0,0,.02,0,.03,0,.06-.01.14-.03.22-.05.08-.02.17-.03.25-.05.06-.01.16-.03.24-.03h.02s.14.01.14.01c.34.04.66.16.94.34.24.16.45.37.61.62.17.02.33.03.5.02h.02c.82,0,1.32.44,1.59.86.11.17.19.34.24.47.76.02,1.22.47,1.51.86.14.19.26.39.33.52.04.07.07.11.09.14.41.27.73.67.9,1.13.18.46.2.97.07,1.44h0c-.14.61-.5,1.98-.93,3.23v.02s-.01.02-.01.02c-.74,1.73-2.74,2.68-5.21,2.68-2.24,0-3.71-1.08-4.66-2.32-.7-.91-1.14-1.92-1.41-2.63l-.23-.6c-.2-.5-.27-1.03-.21-1.57l.03-.2c.08-.46.25-.9.51-1.29l.02-.03.03-.03h0s0,0,0,0l.04-.04s.07-.07.12-.13c.1-.11.22-.26.35-.42.13-.16.25-.32.33-.45.04-.07.07-.12.09-.15h0c0-.36.02-.92.19-1.43.18-.56.57-1.13,1.35-1.32l.23-.04ZM8.54,6.64s0,0,0,0c0,0,0,0,0,0h0s0,0,0,0c0,0,0,0,0,0h0Z"/>
      <path class="st1" d="M10.15,19.36c-2.07,0-3.77-.84-5.06-2.51-.74-.96-1.2-2.03-1.48-2.76l-.23-.6c-.22-.57-.31-1.19-.24-1.8l.03-.21c.09-.55.29-1.05.59-1.5l.25-.29c.09-.11.21-.25.33-.4.12-.14.22-.29.3-.41,0,0,0,0,0-.01,0-.43.04-.95.21-1.46.29-.87.89-1.46,1.71-1.65l.27-.05c.68-.1,1.15.09,1.45.24l.22.11s.06.03.09.05l.4-.08c.09-.02.23-.04.33-.04h.21c.43.06.83.21,1.17.44.23.15.43.34.61.55.07,0,.14,0,.21,0h0c.88,0,1.59.39,2.05,1.09.06.09.11.19.16.28.62.1,1.15.45,1.57,1.03.14.19.25.38.34.52.02.03.04.06.05.08.46.33.8.78,1,1.31.21.56.24,1.17.09,1.75-.13.6-.49,1.98-.94,3.26-.82,1.93-2.94,3.05-5.69,3.05ZM6.99,6.71l-.21.04c-.46.11-.79.44-.97.98-.14.43-.16.91-.16,1.28l-.05.21s-.06.12-.12.21c-.09.15-.22.32-.36.49-.13.16-.26.32-.36.43l-.18.2c-.21.32-.36.69-.42,1.08l-.03.18c-.05.43.02.89.18,1.31l.23.6c.28.72.69,1.66,1.34,2.51,1.08,1.41,2.52,2.12,4.26,2.12,2.34,0,4.11-.89,4.75-2.37.42-1.23.78-2.57.91-3.17.11-.4.09-.8-.05-1.16-.14-.37-.38-.67-.71-.89l-.13-.13s-.06-.09-.11-.18c-.09-.16-.19-.32-.3-.48-.32-.43-.67-.64-1.12-.65h-.33s-.12-.32-.12-.32c-.04-.11-.1-.25-.19-.38-.27-.42-.67-.63-1.17-.63-.19,0-.39,0-.58-.02l-.23-.03-.13-.2c-.12-.19-.28-.35-.47-.47-.22-.14-.46-.23-.72-.26h-.13s-.09,0-.13.01l-.64.12h0c-.2-.03-.33-.1-.5-.19l-.2-.1c-.21-.11-.46-.2-.85-.15Z"/>
    </g>
  </g>
</svg>
